!!!SOCIAL_FUNCTION:	deer dance songs
!!!PDT:	1932
!!!OTL: No_88_The_Deer_and_the_Flower.krn
!!!REG: Southwest
!!!LANG: Non-Tone
!!!LING_GROUP: Yuman-Cochimi
**kern
*staff1
=1-
=
*clefF4
*k[f#c#g#d#a#e#]
*M2/4
8A#\L
8A#\J
12c#\L
12c#\
12c#\J
=2
12A#\L
12A#\
12A#\J
12A#\L
12A#\
12A#\J
=3||
*M3/4
12G#\L
12G#\
12F#\J
8F#\L
8F#\J
8F#\
8r
=4
12A#\L
12A#\
12A#\J
8G#\L
8F#\J
16F#\LL
16F#\JJ
8r
=5
12F#\L
12F#\
12F#\J
8A#\L
8G#\J
16F#\LL
16F#\JJ
8r
=6
12F#\L
12F#\
12F#\J
8F#\L
8F#\J
16F#\LL
16F#\JJ
8r
=7
2.r
=8
*M2/4
8A#\L
8A#\J
8c#\L
8c#\J
=9||
8A#\L
8A#\J
12A#\L
12A#\
12A#\J
=10||
8A#\L
8G#\J
8G#\L
8G#\J
=11||
*M3/4
8G#\L
8F#\J
4F#\
8F#\
8r
=12
12A#\L
12A#\
12A#\J
8A#\L
8G#\J
16F#\LL
16F#\JJ
8r
=13
12F#\L
12F#\
12F#\J
8A#\L
8G#\J
16F#\LL
16F#\JJ
8r
=14
12F#\L
12F#\
12F#\J
8F#\L
8F#\J
16F#\LL
16F#\JJ
8r
==
*-
